icons/sitemap.svg

<svg xmlns="http://www.w3.org/2000/svg" viewBox="0 0 51.26 51.26">
  <g fill="#FFFFFF">
    <path d="M46.87 13.2v-2.47A2.77 2.77 0 0 0 44.09 8H7.16a2.77 2.77 0 0 0-2.77 2.78v29.11a2.77 2.77 0 0 0 2.77 2.78h36.93a2.77 2.77 0 0 0 2.78-2.78V13.2ZM14.2 10.12a1.09 1.09 0 1 1-1.08 1.08 1.08 1.08 0 0 1 1.08-1.08Zm-3.12 0A1.09 1.09 0 1 1 10 11.2a1.08 1.08 0 0 1 1.08-1.08Zm-3.19 0a1.09 1.09 0 0 1 0 2.17 1.09 1.09 0 1 1 0-2.17Zm37.73 29.77a1.52 1.52 0 0 1-1.53 1.53H7.16a1.52 1.52 0 0 1-1.52-1.53V14.45h40Z"/>
    <rect width="9.11" height="5.49" x="21.55" y="17.02" rx=".59"/>
    <rect width="9.11" height="5.49" x="9.07" y="32.88" rx=".59"/>
    <rect width="9.11" height="5.49" x="21.55" y="32.88" rx=".59"/>
    <rect width="9.11" height="5.49" x="34.02" y="32.88" rx=".59"/>
    <path d="M13.63 31.11a.63.63 0 0 0 .62-.63v-2.73h11.18v2.73a.63.63 0 1 0 1.25 0v-2.73H38v2.73a.63.63 0 1 0 1.25 0v-3.35a.63.63 0 0 0-.63-.63H26.68v-1.69a.63.63 0 0 0-1.25 0v1.69h-11.8a.63.63 0 0 0-.63.63v3.35a.63.63 0 0 0 .63.63Z"/>
  </g>
</svg>

<svg xmlns="http://www.w3.org/2000/svg" viewBox="0 0 51.26 51.26"><defs><style>.cls-1{fill:#fff;}</style></defs><g id="Layer_2" data-name="Layer 2"><path class="cls-1" d="M46.87,13.2V10.73A2.77,2.77,0,0,0,44.09,8H7.16a2.77,2.77,0,0,0-2.77,2.78v3.72h0V39.89a2.77,2.77,0,0,0,2.77,2.78H44.09a2.77,2.77,0,0,0,2.78-2.78V13.2ZM14.2,10.12a1.09,1.09,0,1,1-1.08,1.08A1.08,1.08,0,0,1,14.2,10.12Zm-3.12,0A1.09,1.09,0,1,1,10,11.2,1.08,1.08,0,0,1,11.08,10.12Zm-3.19,0a1.09,1.09,0,0,1,0,2.17,1.09,1.09,0,1,1,0-2.17ZM45.62,39.89a1.52,1.52,0,0,1-1.53,1.53H7.16a1.52,1.52,0,0,1-1.52-1.53V14.45h40Z"/><rect class="cls-1" x="21.55" y="17.02" width="9.11" height="5.49" rx="0.59"/><rect class="cls-1" x="9.07" y="32.88" width="9.11" height="5.49" rx="0.59"/><rect class="cls-1" x="21.55" y="32.88" width="9.11" height="5.49" rx="0.59"/><rect class="cls-1" x="34.02" y="32.88" width="9.11" height="5.49" rx="0.59"/><path class="cls-1" d="M13.63,31.11a.63.63,0,0,0,.62-.63V27.75H25.43v2.73a.63.63,0,1,0,1.25,0V27.75H38v2.73a.63.63,0,1,0,1.25,0V27.13a.63.63,0,0,0-.63-.63H26.68V24.81a.63.63,0,0,0-1.25,0V26.5H13.63a.63.63,0,0,0-.63.63v3.35A.63.63,0,0,0,13.63,31.11Z"/></g></svg>
